packages/icons/svg/24/Search.svg

<svg width="24" height="24" viewBox="0 0 24 24" fill="none" xmlns="http://www.w3.org/2000/svg">
<path fill-rule="evenodd" clip-rule="evenodd" d="M15.4615 10.6154C15.4615 9.28124 14.9874 8.14003 14.0391 7.19171C13.0907 6.24338 11.9495 5.76923 10.6154 5.76923C9.28124 5.76923 8.14003 6.24338 7.19171 7.19171C6.24338 8.14003 5.76923 9.28124 5.76923 10.6154C5.76923 11.9495 6.24338 13.0907 7.19171 14.0391C8.14003 14.9874 9.28124 15.4615 10.6154 15.4615C11.9495 15.4615 13.0907 14.9874 14.0391 14.0391C14.9874 13.0907 15.4615 11.9495 15.4615 10.6154ZM21 19.6154C21 19.9904 20.863 20.3149 20.5889 20.5889C20.3149 20.863 19.9904 21 19.6154 21C19.226 21 18.9014 20.863 18.6418 20.5889L14.9315 16.8894C13.6406 17.7837 12.2019 18.2308 10.6154 18.2308C9.58413 18.2308 8.59796 18.0307 7.65685 17.6304C6.71574 17.2302 5.90445 16.6893 5.22296 16.0078C4.54146 15.3263 4.0006 14.515 3.60036 13.5739C3.20012 12.6328 3 11.6466 3 10.6154C3 9.58413 3.20012 8.59796 3.60036 7.65685C4.0006 6.71574 4.54146 5.90445 5.22296 5.22296C5.90445 4.54146 6.71574 4.0006 7.65685 3.60036C8.59796 3.20012 9.58413 3 10.6154 3C11.6466 3 12.6328 3.20012 13.5739 3.60036C14.515 4.0006 15.3263 4.54146 16.0078 5.22296C16.6893 5.90445 17.2302 6.71574 17.6304 7.65685C18.0307 8.59796 18.2308 9.58413 18.2308 10.6154C18.2308 12.2019 17.7837 13.6406 16.8894 14.9315L20.5998 18.6418C20.8666 18.9087 21 19.2332 21 19.6154Z" fill="#858585"/>
</svg>

<svg width="24" height="24" fill="none" xmlns="http://www.w3.org/2000/svg" viewBox="0 0 24 24"><path fill-rule="evenodd" clip-rule="evenodd" d="M15.461 10.615c0-1.334-.474-2.475-1.422-3.423-.948-.949-2.09-1.423-3.424-1.423s-2.475.474-3.423 1.423c-.949.948-1.423 2.09-1.423 3.423 0 1.335.474 2.476 1.423 3.424.948.948 2.09 1.422 3.423 1.422 1.335 0 2.476-.474 3.424-1.422s1.422-2.09 1.422-3.424zm5.539 9c0 .375-.137.7-.411.974a1.33 1.33 0 01-.974.411c-.389 0-.714-.137-.973-.411l-3.71-3.7a7.407 7.407 0 01-4.317 1.342c-1.03 0-2.017-.2-2.958-.6a7.613 7.613 0 01-2.434-1.623A7.614 7.614 0 013.6 13.574c-.4-.941-.6-1.927-.6-2.959 0-1.03.2-2.017.6-2.958.4-.941.941-1.753 1.623-2.434A7.614 7.614 0 017.657 3.6c.941-.4 1.927-.6 2.958-.6 1.032 0 2.018.2 2.959.6.941.4 1.752.941 2.434 1.623a7.613 7.613 0 011.622 2.434c.4.941.6 1.927.6 2.958a7.407 7.407 0 01-1.34 4.316l3.71 3.71c.267.268.4.592.4.974z" fill="currentColor"></path></svg>
